src/assets/images/icons/wtm.svg

<svg fill="none" viewBox="0 0 24 24" xmlns="http://www.w3.org/2000/svg"><g fill="#fff"><path d="m17.9052 18.0693h-2.2252c-.1398-.0001-.2738-.0557-.3727-.1545-.0988-.0989-.1544-.2329-.1545-.3727v-9.85967c.0013-.13943.0572-.27281.1558-.3714.0986-.0986.232-.15453.3714-.15576h2.2252c.1398.00005.2739.05561.3728.15445.0988.09885.1544.23291.1545.37271v9.86647c-.0015.1387-.0577.2713-.1565.3687-.0987.0975-.232.152-.3708.1517z"/><path d="m18.3778 17.5487v-9.86634c-.0032-.13352-.0563-.261-.1488-.35732s-.2178-.1545-.3511-.16309c.0707-.00398.1414.00655.2079.03094.0664.02439.1272.06212.1785.11087s.0921.10749.1199.1726c.0277.06511.0419.13522.0415.206v9.86634z" opacity=".3"/><path d="m15.2075 17.5762h-.0478v-9.86631c-.005-.08034.0092-.1607.0413-.23449.0322-.0738.0813-.13891.1435-.19001.084-.06886.1863-.11171.2943-.12328h2.2937c.0818.00424.1616.02748.2329.06789.0713.0404.1322.09686.1779.16489.0599.09401.0909.20354.0891.315-.0008-.13233-.0537-.25902-.1473-.35259-.0936-.09356-.2203-.14645-.3526-.14719h-2.2253c-.1209-.00318-.2388.03837-.331.1167-.0923.07832-.1524.18792-.1688.3078-.0069.08213-.0069.17119-.0069.19856z" opacity=".3"/><path d="m9.19605 18.0693-2.18438-.0411c-.28753 0-.56831-.1917-.56831-.4793v-9.86647c.00007-.1398.05565-.27386.15451-.37271.09887-.09884.23293-.1544.37274-.15445h2.22525c.1398.00005.27387.05561.37273.15445.09887.09885.15444.23291.15452.37271v9.86647c-.00264.1383-.05922.2702-.15769.3674-.09846.0972-.23101.1521-.36937.153z"/><path d="m10.9009 11.2838 4.3067 6.4841c.0425.0966.1141.1776.2049.2316.0907.054.1961.0784.3013.0697h2.1979c.5683 0 .5957-.6915.5062-.849l-4.3751-6.4909c-.0506-.0902-.124-.1655-.2128-.2184-.0889-.0529-.19-.0815-.2934-.0829"/><path d="m15.7553 18.0765c-.2122 0-.3971-.0342-.5409-.2875l-2.7525-4.1492-1.5405-2.3422.0411-.0273 4.2861 6.4772.0137.0273c.137.2397.2944.3013.4929.3013z" opacity=".4"/><path d="m9.71633 12.5506h-.02053l.00684-4.89556.01369-.00685z" opacity=".3"/><path d="m6.49154 17.3913h-.0479v-9.70173c-.00113-.02758.00117-.0552.00684-.08222.00986-.07053.03371-.13838.07016-.19955.03645-.06118.08476-.11446.14209-.1567.08774-.06308.19326-.09663.30131-.09581h2.25263c.07398.0023.14658.02064.21278.05374s.12443.08018.17066.13798c.07169.08442.11273.19061.11644.30131h-.01369c-.01507-.12162-.07297-.2339-.16332-.31671s-.20724-.13073-.32971-.13517h-2.25272c-.07108-.00014-.14127.01582-.2053.04667-.06404.03085-.12026.07579-.16445.13146-.08258.10574-.12828.2356-.13013.36975z" opacity=".3"/><path d="m17.9052 18.076h-2.1909c-.2123 0-.3563-.0411-.5063-.3012l.0411-.0274c.1369.2396.267.2738.4587.2738h2.191c.0831.0067.1663-.0112.2393-.0513.073-.0402.1327-.1009.1715-.1746.1233-.2123.1096-.4519.0616-.5344l-4.3961-6.5111.0411-.0274 4.3957 6.5114c.0617.1096.0137.4793-.0616.5889-.042.0804-.1064.1471-.1853.1921-.0789.0449-.1691.0661-.2598.0612z" opacity=".3"/><path d="m9.237 18.0692h-2.23894c-.45872 0-.67781-.4382-.50625-.849l4.40939-6.4909c.0506-.0902.124-.1655.2129-.2184.0888-.0529.19-.0815.2934-.0829h2.1366c.0992.0005.1965.0269.2824.0766.0858.0497.1572.121.207.2068s.0764.1831.077.2823-.0247.1969-.0734.2833l-4.29301 6.484c-.04918.0921-.12219.1692-.21139.2234-.08921.0543-.19133.0835-.2957.0848z"/><path d="m7.34762 18.0692h-.32185c-.09741.0049-.19447-.0151-.28194-.0583-.08748-.0431-.16247-.1079-.21784-.1882-.05464-.0899-.08635-.1919-.09233-.297-.00599-.105.01394-.21.05802-.3055l.00684-.0069 4.40218-6.4841c.0534-.0903.1296-.165.2209-.2167s.1945-.0784.2995-.0777h2.1362c.0786.0003.156.0191.226.0548.0532.0264.1017.0612.1438.1031.0418.0395.0767.0858.1031.137 0 0-.2807-.2396-.4724-.2396h-2.1364c-.097-.0013-.1927.0234-.2769.0716-.0843.0482-.1542.118-.2023.2023l-4.40946 6.484c-.04023.0879-.05874.1841-.05398.2807.00476.0965.03267.1905.08136.2739.04858.0757.11544.138.19441.1811.07897.043.16751.0656.25746.0654l.33553.0205z" opacity=".3"/><path d="m9.23718 18.0691h-2.29369c-.10671-.0072-.20902-.0453-.29447-.1096l-.08213-.0821c.11246.0707.23836.1174.36975.137.08213.0068 2.28.0068 2.30738.0068.09976-.002.19723-.0303.28257-.082s.15554-.125.20352-.2125l4.28619-6.484c.0456-.0825.0679-.1758.0643-.27-.0037-.0942-.033-.1857-.0849-.2644-.0366-.0793-.0932-.1477-.1643-.1985-.0821-.0479-.1233-.075 0 0 .1283.0732.2234.193.2655.3346s.0279.294-.0396.4254v.0068c-.3562.541-.9449 1.431-1.575 2.3828-1.2735 1.9239-2.71131 4.1013-2.71131 4.1013-.15038.1988-.32156.3084-.53381.3084z" opacity=".3"/><g opacity=".3"><path d="m7.46445 19.5207c-.00394-.0907-.04362-.1762-.11037-.2377-.06674-.0616-.15514-.0943-.24588-.0909l-2.547-.0205c-.0644-.0021-.12754-.0185-.18487-.0479l-.00685-.0069c-.01516-.0066-.02906-.0159-.04106-.0273l-.01397-.0138c.03744.0312.08223.0524.13013.0616.00684 0 .03422.0068.04106.0068h2.61563c.07624-.0004.15061.0236.21225.0685.04514.0336.08069.0785.10312.1301.03328.0533.04992.1152.04781.178z"/><path d="m2.34239 3.88232h4.77187c.09114.001.17836.03718.24344.10099.06508.0638.10298.15029.10578.24139 0-.17813-.20541-.30122-.34922-.30122h-4.77187c-.00959-.0003-.01906.00207-.02738.00684l-.06159-.03422c.02881-.00898.05879-.01362.08897-.01378z"/></g><g opacity=".3"><path d="m20.2879 6.07349c.2055 0 .3697.12328.3697.32868l.0069 12.38603c.0048.111-.0346.2194-.1096.3013-.0412.0388-.0896.069-.1425.0889-.0528.02-.1091.0293-.1656.0275h-2.5333c-.0403-.0015-.0805.0052-.1181.0197s-.0719.0365-.1007.0647c-.0289.0282-.0517.062-.067.0993-.0154.0373-.023.0773-.0224.1176v1.4584c-.0041.0948.0277.1877.089.2601.0604.0538.1334.0915.2122.1096-.0185.0016-.0372-.0007-.0548-.0068-.0864-.0121-.1652-.0559-.2209-.1231-.0558-.0671-.0844-.1527-.0803-.2398v-1.4585c-.0015-.0472.0067-.0942.024-.1381.0174-.0439.0436-.0838.077-.1172.0333-.0333.0732-.0595.1171-.0769s.0909-.0255.1381-.024h2.5332c.0503.0019.1003-.0063.1474-.024.047-.0177.09-.0446.1265-.0792.0342-.035.0605-.0769.077-.123.0166-.0461.023-.0952.0189-.144v-12.38537c.0001-.04228-.0082-.08416-.0243-.12323-.0162-.03908-.0399-.07458-.0698-.10448s-.0654-.05361-.1044-.06976c-.0391-.01615-.081-.02444-.1233-.02437z"/><path d="m17.7203 6.08021c-.0487.00181-.0973-.00657-.1426-.0246s-.0863-.04533-.1205-.08013c-.0341-.0348-.0606-.07635-.0778-.12199-.0172-.04563-.0246-.09435-.0219-.14303v-1.49944c.0047-.08921.0436-.17318.1086-.23441.0651-.06123.1513-.095.2406-.09427.0068 0 3.9094.00684 4.7449 0 .0685.00135.1352.02276.1917.06159l-.0684-.01369h-4.8613c-.0385-.00163-.0769.00464-.1129.01843s-.0688.0348-.0964.06175c-.0276.02694-.0494.05925-.064.09493-.0146.03567-.0218.07397-.021.11252l-.0137 1.49943c0 .17813.1301.36975.3081.36975"/></g><path d="m7.11462 21.3488h-4.7654c-.09251-.0004-.18112-.0373-.24653-.1027s-.10232-.154-.10269-.2465v-16.76806c.00037-.0925.03728-.18111.10269-.24652s.15402-.10233.24653-.1027h4.7655c.0925.00037.18111.03729.24653.1027.06541.06541.10232.15402.10269.24652v1.48575c-.00037.09251-.03728.18112-.10269.24653-.06542.06541-.15403.10232-.24653.10269h-2.58141c-.09249.0004-.18109.03732-.2465.10272-.0654.06541-.10232.154-.10272.2465v12.38607c.0004.0925.03732.1811.10272.2465.06541.0654.15401.1023.2465.1027h2.58131c.09251.0004.18112.0373.24653.1027s.10232.154.10269.2465v1.4995c-.00039.0925-.03732.181-.10272.2464-.06541.0654-.15401.1023-.2465.1027z"/><g opacity=".3"><path d="m2.34224 21.3487c-.06462-.0016-.12754-.021-.18187-.056-.05434-.0351-.09799-.0843-.12619-.1425.03362.0499.07978.0901.13385.1166.05408.0264.11416.0382.17421.034h4.76541c.07713.0043.15282-.0221.21055-.0734s.09282-.1234.0976-.2005l.01369-1.4926c-.00215-.0459-.00672-.0916-.01369-.137l-.02737-.1095.02053.0343c.02903.0525.04543.1111.04791.1711v1.5338c-.00789.0887-.04898.1711-.11503.2307-.06606.0597-.15222.0922-.24122.091z"/><path d="m4.49914 19.151c-.08896 0-.36975-.1164-.36975-.3219v-12.39286c0-.20541.1575-.43125.36291-.43125h2.55394c.17118 0 .3629-.08222.3629-.2671v-1.48575c0-.17812-.14381-.37659-.32175-.37659.05939-.00461.11897.0062.17294.0314.05398.0252.10053.06392.13513.11241.05096.06638.07537.14938.06843.23278v1.47188c-.0005.01617-.0028.03224-.00684.0479-.00799.04912-.02668.09588-.05475.13697-.03474.04751-.07907.08718-.13013.11644-.07048.03282-.1489.0447-.22593.03422h-2.52656c-.05591.00121-.1104.01778-.1575.04791-.05718.03293-.1041.08108-.13555.1391-.03145.05801-.04619.1236-.04258.18949v12.38625c.00175.0687.0284.1344.075.1849.02709.0399.06256.0735.10395.0983.04138.0249.08768.0404.13568.0455z"/></g><path d="m17.7066 3.88232h4.7449c.0925.0004.1811.03732.2465.10273s.1023.154.1026.24649v16.76816c-.0003.0925-.0372.1811-.1026.2465s-.154.1023-.2465.1027h-4.7449c-.0925-.0004-.1811-.0373-.2465-.1027s-.1023-.154-.1027-.2465v-1.4859c.0004-.0925.0373-.1811.1027-.2465s.154-.1023.2465-.1027h2.5676c.0925-.0004.1811-.0373.2465-.1027.0654-.0653.1023-.1539.1027-.2464v-12.39255c-.0004-.09251-.0373-.18112-.1027-.24653s-.154-.10232-.2465-.10269h-2.5676c-.0925-.00037-.1811-.03728-.2465-.10269s-.1023-.15402-.1027-.24653v-1.49981c.0018-.09142.0394-.17848.1047-.2425.0653-.06401.1531-.09987.2445-.09988z"/><path d="m22.561 21.3284c.057-.0337.1042-.0818.1366-.1395.0325-.0577.0491-.123.0483-.1892v-16.74766c.0011-.06813-.0153-.1354-.0477-.19535-.0323-.05996-.0796-.11058-.1372-.14702.0704.02674.1306.07475.1723.13736.0417.0626.0629.13666.0605.21186v16.74751c-.0002.0713-.0227.1407-.0645.1985s-.1006.101-.1683.1235z" opacity=".3"/><path d="m22.4997 21.3424c-.0137 0-.0411.0068-.0548.0068h-4.6627c-.0526.0015-.1052-.0008-.1575-.0068-.0475-.0104-.092-.0314-.13-.0616l-.0206-.0205-.0137-.0137c.0419.0198.0855.0358.1302.0479.0635.0088.1277.0111.1917.0068h.0411l4.6353.0069c.0867-.0016.1714-.0252.2465-.0685l-.0205.0206c-.0381.0367-.0854.0626-.1369.075-.007-.0002-.0343.0071-.0481.0071z" opacity=".3"/><path d="m17.3574 5.71045c0 .17812.1849.32175.3629.32175h2.5677c.2054 0 .3285.15066.3285.35625-.0074-.08333-.0449-.16113-.1053-.21901-.0604-.05789-.1397-.09195-.2232-.0959h-2.5677c-.0876.00172-.1729-.02865-.2397-.0854-.0669-.05675-.1107-.13597-.1232-.22275z" opacity=".4"/><path d="m2.26033 3.88916.06159.03422c-.07201.01265-.13761.04933-.18609.10405-.04849.05472-.07701.12425-.08091.19726v16.74751c-.00112.0681.01529.1354.04767.1954.03237.0599.07962.1105.13721.147-.07032-.0268-.13053-.0748-.17226-.1374s-.06289-.1367-.06053-.2119v-16.74745c.00085-.07485.02602-.1474.07172-.20669.04569-.05929.10943-.10211.1816-.122z" opacity=".4"/></g></svg>

<svg viewBox="0 0 24 24" fill="none" xmlns="http://www.w3.org/2000/svg">
<title>GDG Women Techmakers</title>
<path d="M17.9052 18.0693H15.68C15.5402 18.0692 15.4062 18.0136 15.3073 17.9148C15.2085 17.8159 15.1529 17.6819 15.1528 17.5421V7.68243C15.1541 7.543 15.21 7.40962 15.3086 7.31103C15.4072 7.21243 15.5406 7.1565 15.68 7.15527H17.9052C18.045 7.15532 18.1791 7.21088 18.278 7.30972C18.3768 7.40857 18.4324 7.54263 18.4325 7.68243V17.5489C18.431 17.6876 18.3748 17.8202 18.276 17.9176C18.1773 18.0151 18.044 18.0696 17.9052 18.0693Z" fill="white"/>
<path opacity="0.3" d="M18.3778 17.5487V7.68236C18.3746 7.54884 18.3215 7.42136 18.229 7.32504C18.1365 7.22872 18.0112 7.17054 17.8779 7.16195C17.9486 7.15797 18.0193 7.1685 18.0858 7.19289C18.1522 7.21728 18.213 7.25501 18.2643 7.30376C18.3156 7.35251 18.3564 7.41125 18.3842 7.47636C18.4119 7.54147 18.4261 7.61158 18.4257 7.68236V17.5487H18.3778Z" fill="white"/>
<path opacity="0.3" d="M15.2075 17.5762H15.1597V7.70989C15.1547 7.62955 15.1689 7.54919 15.201 7.4754C15.2332 7.4016 15.2823 7.33649 15.3445 7.28539C15.4285 7.21653 15.5308 7.17368 15.6388 7.16211H17.9325C18.0143 7.16635 18.0941 7.18959 18.1654 7.23C18.2367 7.2704 18.2976 7.32686 18.3433 7.39489C18.4032 7.4889 18.4342 7.59843 18.4324 7.70989C18.4316 7.57756 18.3787 7.45087 18.2851 7.3573C18.1915 7.26374 18.0648 7.21085 17.9325 7.21011H15.7072C15.5863 7.20693 15.4684 7.24848 15.3762 7.32681C15.2839 7.40513 15.2238 7.51473 15.2074 7.63461C15.2005 7.71674 15.2005 7.8058 15.2005 7.83317L15.2075 17.5762Z" fill="white"/>
<path d="M9.19605 18.0693L7.01167 18.0282C6.72414 18.0282 6.44336 17.8365 6.44336 17.5489V7.68243C6.44343 7.54263 6.49901 7.40857 6.59787 7.30972C6.69674 7.21088 6.8308 7.15532 6.97061 7.15527H9.19586C9.33566 7.15532 9.46973 7.21088 9.56859 7.30972C9.66746 7.40857 9.72303 7.54263 9.72311 7.68243V17.5489C9.72047 17.6872 9.66389 17.8191 9.56542 17.9163C9.46696 18.0135 9.33441 18.0684 9.19605 18.0693Z" fill="white"/>
<path d="M10.9009 11.2838L15.2076 17.7679C15.2501 17.8645 15.3217 17.9455 15.4125 17.9995C15.5032 18.0535 15.6086 18.0779 15.7138 18.0692H17.9117C18.48 18.0692 18.5074 17.3777 18.4179 17.2202L14.0428 10.7293C13.9922 10.6391 13.9188 10.5638 13.83 10.5109C13.7411 10.458 13.64 10.4294 13.5366 10.428" fill="white"/>
<path opacity="0.4" d="M15.7553 18.0765C15.5431 18.0765 15.3582 18.0423 15.2144 17.789L12.4619 13.6398L10.9214 11.2976L10.9625 11.2703L15.2486 17.7475L15.2623 17.7748C15.3993 18.0145 15.5567 18.0761 15.7552 18.0761L15.7553 18.0765Z" fill="white"/>
<path opacity="0.3" d="M9.71633 12.5506H9.6958L9.70264 7.65504L9.71633 7.64819V12.5506Z" fill="white"/>
<path opacity="0.3" d="M6.49154 17.3913H6.44364V7.68957C6.44251 7.66199 6.44481 7.63437 6.45048 7.60735C6.46034 7.53682 6.48419 7.46897 6.52064 7.4078C6.55709 7.34662 6.6054 7.29334 6.66273 7.2511C6.75047 7.18802 6.85599 7.15447 6.96404 7.15529H9.21667C9.29065 7.15759 9.36325 7.17593 9.42945 7.20903C9.49565 7.24213 9.55388 7.28921 9.60011 7.34701C9.6718 7.43143 9.71284 7.53762 9.71655 7.64832H9.70286C9.68779 7.5267 9.62989 7.41442 9.53954 7.33161C9.44919 7.2488 9.3323 7.20088 9.20983 7.19644H6.95711C6.88603 7.1963 6.81584 7.21226 6.75181 7.24311C6.68777 7.27396 6.63155 7.3189 6.58736 7.37457C6.50478 7.48031 6.45908 7.61017 6.45723 7.74432L6.49154 17.3913Z" fill="white"/>
<path opacity="0.3" d="M17.9052 18.076H15.7143C15.502 18.076 15.358 18.0349 15.208 17.7748L15.2491 17.7474C15.386 17.987 15.5161 18.0212 15.7078 18.0212H17.8988C17.9819 18.0279 18.0651 18.01 18.1381 17.9699C18.2111 17.9297 18.2708 17.869 18.3096 17.7953C18.4329 17.583 18.4192 17.3434 18.3712 17.2609L13.9751 10.7498L14.0162 10.7224L18.4119 17.2338C18.4736 17.3434 18.4256 17.7131 18.3503 17.8227C18.3083 17.9031 18.2439 17.9698 18.165 18.0148C18.0861 18.0597 17.9959 18.0809 17.9052 18.076Z" fill="white"/>
<path d="M9.237 18.0692H6.99806C6.53934 18.0692 6.32025 17.631 6.49181 17.2202L10.9012 10.7293C10.9518 10.6391 11.0252 10.5638 11.1141 10.5109C11.2029 10.458 11.3041 10.4294 11.4075 10.428H13.5441C13.6433 10.4285 13.7406 10.4549 13.8265 10.5046C13.9123 10.5543 13.9837 10.6256 14.0335 10.7114C14.0833 10.7972 14.1099 10.8945 14.1105 10.9937C14.1111 11.0929 14.0858 11.1906 14.0371 11.277L9.74409 17.761C9.69491 17.8531 9.6219 17.9302 9.5327 17.9844C9.44349 18.0387 9.34137 18.0679 9.237 18.0692Z" fill="white"/>
<path opacity="0.3" d="M7.34762 18.0692H7.02577C6.92836 18.0741 6.8313 18.0541 6.74383 18.0109C6.65635 17.9678 6.58136 17.903 6.52599 17.8227C6.47135 17.7328 6.43964 17.6308 6.43366 17.5257C6.42767 17.4207 6.4476 17.3157 6.49168 17.2202L6.49852 17.2133L10.9007 10.7292C10.9541 10.6389 11.0303 10.5642 11.1216 10.5125C11.2129 10.4608 11.3161 10.4341 11.4211 10.4348H13.5573C13.6359 10.4351 13.7133 10.4539 13.7833 10.4896C13.8365 10.516 13.885 10.5508 13.9271 10.5927C13.9689 10.6322 14.0038 10.6785 14.0302 10.7297C14.0302 10.7297 13.7495 10.4901 13.5578 10.4901H11.4214C11.3244 10.4888 11.2287 10.5135 11.1445 10.5617C11.0602 10.6099 10.9903 10.6797 10.9422 10.764L6.53274 17.248C6.49251 17.3359 6.474 17.4321 6.47876 17.5287C6.48352 17.6252 6.51143 17.7192 6.56012 17.8026C6.6087 17.8783 6.67556 17.9406 6.75453 17.9837C6.8335 18.0267 6.92204 18.0493 7.01199 18.0491L7.34752 18.0696L7.34762 18.0692Z" fill="white"/>
<path opacity="0.3" d="M9.23718 18.0691H6.94349C6.83678 18.0619 6.73447 18.0238 6.64902 17.9595L6.56689 17.8774C6.67935 17.9481 6.80525 17.9948 6.93664 18.0144C7.01877 18.0212 9.21664 18.0212 9.24402 18.0212C9.34378 18.0192 9.44125 17.9909 9.52659 17.9392C9.61193 17.8875 9.68213 17.8142 9.73011 17.7267L14.0163 11.2427C14.0619 11.1602 14.0842 11.0669 14.0806 10.9727C14.0769 10.8785 14.0476 10.787 13.9957 10.7083C13.9591 10.629 13.9025 10.5606 13.8314 10.5098C13.7493 10.4619 13.7081 10.4348 13.8314 10.5098C13.9597 10.583 14.0548 10.7028 14.0969 10.8444C14.139 10.986 14.1248 11.1384 14.0573 11.2698V11.2766C13.7011 11.8176 13.1124 12.7076 12.4823 13.6594C11.2088 15.5833 9.77099 17.7607 9.77099 17.7607C9.62061 17.9595 9.44943 18.0691 9.23718 18.0691Z" fill="white"/>
<g opacity="0.3">
<path d="M7.46445 19.5207C7.46051 19.43 7.42083 19.3445 7.35408 19.283C7.28734 19.2214 7.19894 19.1887 7.1082 19.1921L4.5612 19.1716C4.4968 19.1695 4.43366 19.1531 4.37633 19.1237L4.36948 19.1168C4.35432 19.1102 4.34042 19.1009 4.32842 19.0895L4.31445 19.0757C4.35189 19.1069 4.39668 19.1281 4.44458 19.1373C4.45142 19.1373 4.4788 19.1441 4.48564 19.1441H7.10127C7.17751 19.1437 7.25188 19.1677 7.31352 19.2126C7.35866 19.2462 7.39421 19.2911 7.41664 19.3427C7.44992 19.396 7.46656 19.4579 7.46445 19.5207Z" fill="white"/>
<path d="M2.34239 3.88232H7.11426C7.2054 3.88332 7.29262 3.9195 7.3577 3.98331C7.42278 4.04711 7.46068 4.1336 7.46348 4.2247C7.46348 4.04657 7.25807 3.92348 7.11426 3.92348H2.34239C2.3328 3.92318 2.32333 3.92555 2.31501 3.93032L2.25342 3.8961C2.28223 3.88712 2.31221 3.88248 2.34239 3.88232Z" fill="white"/>
</g>
<g opacity="0.3">
<path d="M20.2879 6.07349C20.4934 6.07349 20.6576 6.19677 20.6576 6.40217L20.6645 18.7882C20.6693 18.8992 20.6299 19.0076 20.5549 19.0895C20.5137 19.1283 20.4653 19.1585 20.4124 19.1784C20.3596 19.1984 20.3033 19.2077 20.2468 19.2059H17.7135C17.6732 19.2044 17.633 19.2111 17.5954 19.2256C17.5578 19.2401 17.5235 19.2621 17.4947 19.2903C17.4658 19.3185 17.443 19.3523 17.4277 19.3896C17.4123 19.4269 17.4047 19.4669 17.4053 19.5072V20.9656C17.4012 21.0604 17.433 21.1533 17.4943 21.2257C17.5547 21.2795 17.6277 21.3172 17.7065 21.3353C17.688 21.3369 17.6693 21.3346 17.6517 21.3285C17.5653 21.3164 17.4865 21.2726 17.4308 21.2054C17.375 21.1383 17.3464 21.0527 17.3505 20.9656V19.5071C17.349 19.4599 17.3572 19.4129 17.3745 19.369C17.3919 19.3251 17.4181 19.2852 17.4515 19.2518C17.4848 19.2185 17.5247 19.1923 17.5686 19.1749C17.6125 19.1575 17.6595 19.1494 17.7067 19.1509H20.2399C20.2902 19.1528 20.3402 19.1446 20.3873 19.1269C20.4343 19.1092 20.4773 19.0823 20.5138 19.0477C20.548 19.0127 20.5743 18.9708 20.5908 18.9247C20.6074 18.8786 20.6138 18.8295 20.6097 18.7807V6.39533C20.6098 6.35305 20.6015 6.31117 20.5854 6.2721C20.5692 6.23302 20.5455 6.19752 20.5156 6.16762C20.4857 6.13772 20.4502 6.11401 20.4112 6.09786C20.3721 6.08171 20.3302 6.07342 20.2879 6.07349Z" fill="white"/>
<path d="M17.7203 6.08021C17.6716 6.08202 17.623 6.07364 17.5777 6.05561C17.5324 6.03758 17.4914 6.01028 17.4572 5.97548C17.4231 5.94068 17.3966 5.89913 17.3794 5.85349C17.3622 5.80786 17.3548 5.75914 17.3575 5.71046V4.21102C17.3622 4.12181 17.4011 4.03784 17.4661 3.97661C17.5312 3.91538 17.6174 3.88161 17.7067 3.88234C17.7135 3.88234 21.6161 3.88918 22.4516 3.88234C22.5201 3.88369 22.5868 3.9051 22.6433 3.94393L22.5749 3.93024H17.7136C17.6751 3.92861 17.6367 3.93488 17.6007 3.94867C17.5647 3.96246 17.5319 3.98347 17.5043 4.01042C17.4767 4.03736 17.4549 4.06967 17.4403 4.10535C17.4257 4.14102 17.4185 4.17932 17.4193 4.21787L17.4056 5.7173C17.4056 5.89543 17.5357 6.08705 17.7137 6.08705" fill="white"/>
</g>
<path d="M7.11462 21.3488H2.34922C2.25671 21.3484 2.1681 21.3115 2.10269 21.2461C2.03728 21.1807 2.00037 21.0921 2 20.9996V4.23154C2.00037 4.13904 2.03728 4.05043 2.10269 3.98502C2.1681 3.91961 2.25671 3.88269 2.34922 3.88232H7.11472C7.20722 3.88269 7.29583 3.91961 7.36125 3.98502C7.42666 4.05043 7.46357 4.13904 7.46394 4.23154V5.71729C7.46357 5.8098 7.42666 5.89841 7.36125 5.96382C7.29583 6.02923 7.20722 6.06614 7.11472 6.06651H4.53331C4.44082 6.06691 4.35222 6.10383 4.28681 6.16923C4.22141 6.23464 4.18449 6.32323 4.18409 6.41573V18.8018C4.18449 18.8943 4.22141 18.9829 4.28681 19.0483C4.35222 19.1137 4.44082 19.1506 4.53331 19.151H7.11462C7.20713 19.1514 7.29574 19.1883 7.36115 19.2537C7.42656 19.3191 7.46347 19.4077 7.46384 19.5002V20.9997C7.46345 21.0922 7.42652 21.1807 7.36112 21.2461C7.29571 21.3115 7.20711 21.3484 7.11462 21.3488Z" fill="white"/>
<g opacity="0.3">
<path d="M2.34224 21.3487C2.27762 21.3471 2.2147 21.3277 2.16037 21.2927C2.10603 21.2576 2.06238 21.2084 2.03418 21.1502C2.0678 21.2001 2.11396 21.2403 2.16803 21.2668C2.22211 21.2932 2.28219 21.305 2.34224 21.3008H7.10765C7.18478 21.3051 7.26047 21.2787 7.3182 21.2274C7.37593 21.1761 7.41102 21.104 7.4158 21.0269L7.42949 19.5343C7.42734 19.4884 7.42277 19.4427 7.4158 19.3973L7.38843 19.2878L7.40896 19.3221C7.43799 19.3746 7.45439 19.4332 7.45687 19.4932V21.027C7.44898 21.1157 7.40789 21.1981 7.34184 21.2577C7.27578 21.3174 7.18962 21.3499 7.10062 21.3487H2.34224Z" fill="white"/>
<path d="M4.49914 19.151C4.41018 19.151 4.12939 19.0346 4.12939 18.8291V6.43624C4.12939 6.23083 4.28689 6.00499 4.4923 6.00499H7.04624C7.21742 6.00499 7.40914 5.92277 7.40914 5.73789V4.25214C7.40914 4.07402 7.26533 3.87555 7.08739 3.87555C7.14678 3.87094 7.20636 3.88175 7.26033 3.90695C7.31431 3.93215 7.36086 3.97087 7.39546 4.01936C7.44642 4.08574 7.47083 4.16874 7.46389 4.25214V5.72402C7.46339 5.74019 7.46109 5.75626 7.45705 5.77192C7.44906 5.82104 7.43037 5.8678 7.4023 5.90889C7.36756 5.9564 7.32323 5.99607 7.27217 6.02533C7.20169 6.05815 7.12327 6.07003 7.04624 6.05955H4.51968C4.46377 6.06076 4.40928 6.07733 4.36218 6.10746C4.305 6.14039 4.25808 6.18854 4.22663 6.24656C4.19518 6.30457 4.18044 6.37016 4.18405 6.43605V18.8223C4.1858 18.891 4.21245 18.9567 4.25905 19.0072C4.28614 19.0471 4.32161 19.0807 4.363 19.1055C4.40438 19.1304 4.45068 19.1459 4.49868 19.151H4.49914Z" fill="white"/>
</g>
<path d="M17.7066 3.88232H22.4515C22.544 3.88272 22.6326 3.91964 22.698 3.98505C22.7634 4.05046 22.8003 4.13905 22.8006 4.23154V20.9997C22.8003 21.0922 22.7634 21.1808 22.698 21.2462C22.6326 21.3116 22.544 21.3485 22.4515 21.3489H17.7066C17.6141 21.3485 17.5255 21.3116 17.4601 21.2462C17.3947 21.1808 17.3578 21.0922 17.3574 20.9997V19.5138C17.3578 19.4213 17.3947 19.3327 17.4601 19.2673C17.5255 19.2019 17.6141 19.165 17.7066 19.1646H20.2742C20.3667 19.1642 20.4553 19.1273 20.5207 19.0619C20.5861 18.9966 20.623 18.908 20.6234 18.8155V6.42295C20.623 6.33044 20.5861 6.24183 20.5207 6.17642C20.4553 6.11101 20.3667 6.0741 20.2742 6.07373H17.7066C17.6141 6.07336 17.5255 6.03645 17.4601 5.97104C17.3947 5.90563 17.3578 5.81702 17.3574 5.72451V4.2247C17.3592 4.13328 17.3968 4.04622 17.4621 3.9822C17.5274 3.91819 17.6152 3.88233 17.7066 3.88232Z" fill="white"/>
<path opacity="0.3" d="M22.561 21.3284C22.618 21.2947 22.6652 21.2466 22.6976 21.1889C22.7301 21.1312 22.7467 21.0659 22.7459 20.9997V4.25204C22.747 4.18391 22.7306 4.11664 22.6982 4.05669C22.6659 3.99673 22.6186 3.94611 22.561 3.90967C22.6314 3.93641 22.6916 3.98442 22.7333 4.04703C22.775 4.10963 22.7962 4.18369 22.7938 4.25889V21.0064C22.7936 21.0777 22.7711 21.1471 22.7293 21.2049C22.6875 21.2627 22.6287 21.3059 22.561 21.3284Z" fill="white"/>
<path opacity="0.3" d="M22.4997 21.3424C22.486 21.3424 22.4586 21.3492 22.4449 21.3492H17.7822C17.7296 21.3507 17.677 21.3484 17.6247 21.3424C17.5772 21.332 17.5327 21.311 17.4947 21.2808L17.4741 21.2603L17.4604 21.2466C17.5023 21.2664 17.5459 21.2824 17.5906 21.2945C17.6541 21.3033 17.7183 21.3056 17.7823 21.3013H17.8234L22.4587 21.3082C22.5454 21.3066 22.6301 21.283 22.7052 21.2397L22.6847 21.2603C22.6466 21.297 22.5993 21.3229 22.5478 21.3353C22.5408 21.3351 22.5135 21.3424 22.4997 21.3424Z" fill="white"/>
<path opacity="0.4" d="M17.3574 5.71045C17.3574 5.88857 17.5423 6.0322 17.7203 6.0322H20.288C20.4934 6.0322 20.6165 6.18286 20.6165 6.38845C20.6091 6.30512 20.5716 6.22732 20.5112 6.16944C20.4508 6.11155 20.3715 6.07749 20.288 6.07354H17.7203C17.6327 6.07526 17.5474 6.04489 17.4806 5.98814C17.4137 5.93139 17.3699 5.85217 17.3574 5.76539V5.71045Z" fill="white"/>
<path opacity="0.4" d="M2.26033 3.88916L2.32192 3.92338C2.24991 3.93603 2.18431 3.97271 2.13583 4.02743C2.08734 4.08215 2.05882 4.15168 2.05492 4.22469V20.9722C2.0538 21.0403 2.07021 21.1076 2.10259 21.1676C2.13496 21.2275 2.18221 21.2781 2.2398 21.3146C2.16948 21.2878 2.10927 21.2398 2.06754 21.1772C2.02581 21.1146 2.00465 21.0405 2.00701 20.9653V4.21785C2.00786 4.143 2.03303 4.07045 2.07873 4.01116C2.12442 3.95187 2.18816 3.90905 2.26033 3.88916Z" fill="white"/>
</svg>
